X: 20361
T: O LET ME IN THIS AE NIGHT
Q: "Andante"
%R: march
B: "Edinburgh Repository of Music" v.2 p.36 #1
F: http://digital.nls.uk/special-collections-of-printed-music/pageturner.cfm?id=87776133
Z: 2015 John Chambers <jc:trillian.mit.edu>
M: C
L: 1/8
K: Em
A |\
(GE)EF (GA)BG | ABcA d>cB>A |\
GEE^d (e>f)(g>e) | (dB)AG A2B |]\
A |\
GEEd e2dB | (dA)(Bc) B3A |\
(GE)E^d (e>f)ge | (dB)(AG) | A2B |]

%%sep 2 1 500
%%sep 1 1 500

